X: 38050
T: Spin-N-Glo
R: jig
M: 6/8
K: Gmajor
"G" DGB d2B|"G" d3d2B|"G" DGB dcB|"D" c3c2 A|
"D" DFA d^cd|"D" d^cd de=f|1 "D7" e2=c A2_B|"G" =B3 B2 G:|2 "D7" eAc BFA|"G" G3 G2 g||
"G" b2g d2g|"G" dBG DGB|"C" d2c c2B|"Am" c3 cde|
"D" fgf f2e|"D" ded d2e|"Am" fed "D7"cA^A|"G" B3 Bdg|
"G" bgd Bdg|"G" dBG DGB|"C" dcc c2B|"Am" c3 cde|
"D" fgf f2e|"D" ded d2e|"D" fed "D7"cAF|"G" G3 G2 z||

